Obsidian-SemiLight/actions/16s/shapes.svg

<svg viewBox="0 0 16 16" xmlns="http://www.w3.org/2000/svg"><path d="m4.5 2a2.5 2.5 0 0 0 -2.5 2.5 2.5 2.5 0 0 0 2.5 2.5 2.5 2.5 0 0 0 2.5-2.5 2.5 2.5 0 0 0 -2.5-2.5zm4.5 0v5h5v-5zm-6 6v6h3v-6zm8 0-3 6h6z" fill="#4d4d4d"/></svg>

<svg xmlns="http://www.w3.org/2000/svg" viewBox="0 0 16 16">
  <defs id="defs3051">
    <style type="text/css" id="current-color-scheme">
      .ColorScheme-Text {
        color:#4d4d4d;
      }
      </style>
  </defs>
 <path 
     style="fill:currentColor;fill-opacity:1;stroke:none" 
     d="M 4.5 2 A 2.5 2.5 0 0 0 2 4.5 A 2.5 2.5 0 0 0 4.5 7 A 2.5 2.5 0 0 0 7 4.5 A 2.5 2.5 0 0 0 4.5 2 z M 9 2 L 9 7 L 14 7 L 14 2 L 9 2 z M 3 8 L 3 14 L 6 14 L 6 8 L 3 8 z M 11 8 L 8 14 L 14 14 L 11 8 z "
     class="ColorScheme-Text"/>
</svg>
